P3
20 31
255
0 0 255 0 0 255 0 0 255 0 0 255 0 0 255 255 0 0 255 0 0 255 0 0 255 0 0 0 0 255 0 0 255 0 0 255 0 0 255 0 0 255 0 0 255 0 0 255 0 0 255 0 0 255 0 0 255 0 0 255 
0 0 255 0 0 255 0 0 255 0 0 255 0 0 255 128 0 128 255 0 0 255 0 0 255 0 0 128 0 128 0 0 255 0 0 255 0 0 255 0 0 255 0 0 255 0 0 255 0 0 255 0 0 255 0 0 255 0 0 255 
0 0 255 0 0 255 0 0 255 0 0 255 0 0 255 64 0 191 191 0 64 255 0 0 255 0 0 191 0 64 64 0 191 0 0 255 0 0 255 0 0 255 0 0 255 0 0 255 0 0 255 0 0 255 0 0 255 0 0 255 
0 0 255 0 0 255 0 0 255 0 0 255 0 0 255 32 0 223 128 0 128 223 0 32 255 0 0 223 0 32 128 0 128 32 0 223 0 0 255 0 0 255 0 0 255 0 0 255 0 0 255 0 0 255 0 0 255 0 0 255 
0 0 255 0 0 255 0 0 255 0 0 255 0 0 255 16 0 239 80 0 175 175 0 80 239 0 16 239 0 16 175 0 80 80 0 175 16 0 239 0 0 255 0 0 255 0 0 255 0 0 255 0 0 255 0 0 255 0 0 255 
0 0 255 0 0 255 0 0 255 0 0 255 0 0 255 8 0 247 48 0 207 128 0 128 207 0 48 239 0 16 207 0 48 128 0 128 48 0 207 8 0 247 0 0 255 0 0 255 0 0 255 0 0 255 0 0 255 0 0 255 
0 0 255 0 0 255 0 0 255 0 0 255 0 0 255 4 0 251 28 0 227 88 0 167 167 0 88 223 0 32 223 0 32 167 0 88 88 0 167 28 0 227 4 0 251 0 0 255 0 0 255 0 0 255 0 0 255 0 0 255 
0 0 255 0 0 255 0 0 255 0 0 255 0 0 255 2 0 253 16 0 239 58 0 197 128 0 128 195 0 60 223 0 32 195 0 60 128 0 128 58 0 197 16 0 239 2 0 253 0 0 255 0 0 255 0 0 255 0 0 255 
0 0 255 0 0 255 0 0 255 0 0 255 0 0 255 1 0 254 9 0 246 37 0 218 93 0 162 161 0 94 209 0 46 209 0 46 161 0 94 93 0 162 37 0 218 9 0 246 1 0 254 0 0 255 0 0 255 0 0 255 
0 0 255 0 0 255 0 0 255 0 0 255 0 0 255 0 0 255 5 0 250 23 0 232 65 0 190 127 0 128 185 0 70 209 0 46 185 0 70 127 0 128 65 0 190 23 0 232 5 0 250 0 0 255 0 0 255 0 0 255 
0 0 255 0 0 255 0 0 255 0 0 255 0 0 255 0 0 255 3 0 252 14 0 241 44 0 211 96 0 159 156 0 99 197 0 58 197 0 58 156 0 99 96 0 159 44 0 211 14 0 241 3 0 252 0 0 255 0 0 255 
0 0 255 0 0 255 0 0 255 0 0 255 0 0 255 0 0 255 1 0 254 8 0 247 29 0 226 70 0 185 126 0 129 177 0 78 197 0 58 177 0 78 126 0 129 70 0 185 29 0 226 8 0 247 1 0 254 0 0 255 
0 0 255 0 0 255 0 0 255 0 0 255 0 0 255 0 0 255 1 0 254 5 0 250 19 0 236 49 0 206 98 0 157 151 0 104 187 0 68 187 0 68 151 0 104 98 0 157 49 0 206 19 0 236 5 0 250 1 0 254 
0 0 255 0 0 255 0 0 255 0 0 255 0 0 255 0 0 255 0 0 255 3 0 252 12 0 243 34 0 221 74 0 181 125 0 130 169 0 86 187 0 68 169 0 86 125 0 130 74 0 181 34 0 221 12 0 243 3 0 252 
2 0 253 0 0 255 0 0 255 0 0 255 0 0 255 0 0 255 0 0 255 2 0 253 7 0 248 23 0 232 54 0 201 99 0 156 147 0 108 178 0 77 178 0 77 147 0 108 99 0 156 54 0 201 23 0 232 7 0 248 
4 0 251 1 0 254 0 0 255 0 0 255 0 0 255 0 0 255 0 0 255 1 0 254 4 0 251 15 0 240 38 0 217 76 0 179 123 0 132 162 0 93 178 0 77 162 0 93 123 0 132 76 0 179 38 0 217 15 0 240 
10 0 245 3 0 252 1 0 254 0 0 255 0 0 255 0 0 255 0 0 255 1 0 254 3 0 252 10 0 245 27 0 228 57 0 198 100 0 155 143 0 112 170 0 85 170 0 85 143 0 112 100 0 155 57 0 198 27 0 228 
18 0 237 6 0 249 2 0 253 0 0 255 0 0 255 0 0 255 0 0 255 0 0 255 2 0 253 6 0 249 18 0 237 42 0 213 79 0 176 121 0 134 157 0 98 170 0 85 157 0 98 121 0 134 79 0 176 42 0 213 
30 0 225 12 0 243 4 0 251 1 0 254 0 0 255 0 0 255 0 0 255 0 0 255 1 0 254 4 0 251 12 0 243 30 0 225 60 0 195 100 0 155 139 0 116 163 0 92 163 0 92 139 0 116 100 0 155 60 0 195 
45 0 210 21 0 234 8 0 247 2 0 253 1 0 254 0 0 255 0 0 255 0 0 255 1 0 254 2 0 253 8 0 247 21 0 234 45 0 210 80 0 175 119 0 136 151 0 104 163 0 92 151 0 104 119 0 136 80 0 175 
63 0 192 33 0 222 15 0 240 5 0 250 2 0 253 0 0 255 0 0 255 0 0 255 0 0 255 2 0 253 5 0 250 15 0 240 33 0 222 63 0 192 100 0 155 135 0 120 157 0 98 157 0 98 135 0 120 100 0 155 
81 0 174 48 0 207 24 0 231 10 0 245 3 0 252 1 0 254 0 0 255 0 0 255 0 0 255 1 0 254 3 0 252 10 0 245 24 0 231 48 0 207 81 0 174 118 0 137 146 0 109 157 0 98 146 0 109 118 0 137 
99 0 156 65 0 190 36 0 219 17 0 238 7 0 248 2 0 253 1 0 254 0 0 255 0 0 255 1 0 254 2 0 253 7 0 248 17 0 238 36 0 219 65 0 190 99 0 156 132 0 123 152 0 103 152 0 103 132 0 123 
116 0 139 82 0 173 50 0 205 26 0 229 12 0 243 4 0 251 1 0 254 0 0 255 0 0 255 0 0 255 1 0 254 4 0 251 12 0 243 26 0 229 50 0 205 82 0 173 116 0 139 142 0 113 152 0 103 142 0 113 
129 0 126 99 0 156 66 0 189 38 0 217 19 0 236 8 0 247 3 0 252 1 0 254 0 0 255 0 0 255 1 0 254 3 0 252 8 0 247 19 0 236 38 0 217 66 0 189 99 0 156 129 0 126 147 0 108 147 0 108 
138 0 117 114 0 141 82 0 173 52 0 203 29 0 226 14 0 241 5 0 250 2 0 253 1 0 254 0 0 255 1 0 254 2 0 253 5 0 250 14 0 241 29 0 226 52 0 203 82 0 173 114 0 141 138 0 117 147 0 108 
142 0 113 126 0 129 98 0 157 67 0 188 40 0 215 21 0 234 10 0 245 4 0 251 1 0 254 0 0 255 0 0 255 1 0 254 4 0 251 10 0 245 21 0 234 40 0 215 67 0 188 98 0 157 126 0 129 142 0 113 
142 0 113 134 0 121 112 0 143 83 0 172 54 0 201 31 0 224 15 0 240 7 0 248 2 0 253 1 0 254 0 0 255 1 0 254 2 0 253 7 0 248 15 0 240 31 0 224 54 0 201 83 0 172 112 0 143 134 0 121 
138 0 117 138 0 117 123 0 132 97 0 158 68 0 187 42 0 213 23 0 232 11 0 244 5 0 250 2 0 253 1 0 254 1 0 254 2 0 253 5 0 250 11 0 244 23 0 232 42 0 213 68 0 187 97 0 158 123 0 132 
131 0 124 138 0 117 131 0 124 110 0 145 83 0 172 55 0 200 33 0 222 17 0 238 8 0 247 3 0 252 1 0 254 1 0 254 1 0 254 3 0 252 8 0 247 17 0 238 33 0 222 55 0 200 83 0 172 110 0 145 
120 0 135 134 0 121 134 0 121 120 0 135 96 0 159 69 0 186 44 0 211 25 0 230 12 0 243 5 0 250 2 0 253 1 0 254 1 0 254 2 0 253 5 0 250 12 0 243 25 0 230 44 0 211 69 0 186 96 0 159 
